src/assets/images/partners-color-logo-3.svg

<svg width="90" height="29" viewBox="0 0 90 29" fill="none" xmlns="http://www.w3.org/2000/svg">
<path d="M16.9325 14.4443C17.4692 14.9815 17.9288 15.678 18.3115 16.5338C18.6953 17.3885 19.0466 18.2952 19.3659 19.2535C19.6846 20.2106 20.0104 21.1748 20.3421 22.1461C20.675 23.1163 21.0393 23.965 21.4344 24.6929C21.8307 25.4214 22.2903 25.9959 22.8134 26.4176C23.3376 26.8393 23.9702 26.9731 24.7113 26.8203C24.2261 27.3303 23.5491 27.7194 22.6807 27.9883C21.8117 28.2566 20.8663 28.4034 19.8445 28.4289C18.3879 28.4289 17.1801 28.0581 16.2217 27.3178C15.2644 26.5775 14.479 25.6453 13.8665 24.5223C13.2534 23.3982 12.7612 22.1841 12.3904 20.8811C12.0207 19.5781 11.6949 18.3651 11.4142 17.2422C11.1328 16.1181 10.8455 15.1787 10.5517 14.4254C10.2579 13.672 9.88116 13.2953 9.42149 13.2953H11.7601C12.3205 13.2953 12.85 13.1236 13.3476 12.7789C13.8464 12.433 14.2811 11.9663 14.6508 11.3787C15.0216 10.7912 15.3154 10.1018 15.5322 9.31055C15.7502 8.51928 15.8592 7.66346 15.8592 6.74248C15.8592 5.84875 15.7502 4.99352 15.5322 4.17678C15.3154 3.35886 15.0216 2.64341 14.6508 2.03041C14.2811 1.41801 13.8464 0.926427 13.3476 0.556852C12.85 0.186094 12.3205 0.00012207 11.7601 0.00012207H15.4374C16.4338 0.00012207 17.3667 0.173064 18.2357 0.518947C19.1041 0.863647 19.8641 1.3422 20.5151 1.9546C21.1672 2.5676 21.6844 3.28305 22.067 4.10097C22.4509 4.91771 22.6428 5.78538 22.6428 6.70458C22.6428 7.62378 22.4509 8.49263 22.067 9.31055C21.6844 10.1273 21.1672 10.8427 20.5151 11.4569C19.8641 12.0699 19.1041 12.5485 18.2357 12.8926C17.3667 13.2373 16.4338 13.409 15.4374 13.409H14.864C15.0678 13.409 15.2976 13.4606 15.5535 13.563C15.7573 13.6406 15.98 13.7496 16.2217 13.89C16.4646 14.0309 16.7015 14.2157 16.9325 14.4443ZM9.22957 24.2925C9.22957 24.931 9.45289 25.512 9.90011 26.0362C10.3467 26.5591 10.903 26.8203 11.5682 26.8203H0.185547C0.825287 26.8203 1.36847 26.5591 1.8157 26.0362C2.26233 25.512 2.48624 24.931 2.48624 24.2925V2.52792C2.48624 1.89004 2.26233 1.30962 1.8157 0.786652C1.36847 0.262496 0.825287 0.00012207 0.185547 0.00012207H9.22957V24.2925Z" fill="#6356E0"/>
<path d="M72.9558 24.7117C72.9558 25.1731 73.1086 25.6209 73.4155 26.055C73.7235 26.4879 74.0937 26.7432 74.5267 26.8202H65.6367C66.0709 26.7432 66.4411 26.4879 66.748 26.055C67.0542 25.6209 67.2076 25.1731 67.2076 24.7117V11.073C67.2076 10.5885 67.0542 10.1349 66.748 9.71317C66.4411 9.29148 66.0709 9.04213 65.6367 8.96455L72.1905 8.00744H72.3042C72.7384 8.00744 72.9558 8.2248 72.9558 8.65894V24.7117ZM70.0817 5.93925C69.2649 5.93925 68.5689 5.652 67.9943 5.07691C67.4191 4.50241 67.1318 3.8059 67.1318 2.98739C67.1318 2.17125 67.4191 1.46882 67.9943 0.881292C68.5689 0.293764 69.2649 0 70.0817 0C70.8998 0 71.6029 0.293764 72.1905 0.881292C72.7781 1.46882 73.0719 2.17125 73.0719 2.98739C73.0719 3.39665 72.9949 3.78044 72.8421 4.13876C72.6887 4.49589 72.4778 4.80861 72.2095 5.07691C71.9405 5.3458 71.6207 5.55664 71.2498 5.70945C70.8802 5.86285 70.4904 5.93925 70.0817 5.93925Z" fill="#6356E0"/>
<path d="M63.2249 10.1916V23.3707C63.2249 23.9583 63.4221 24.4504 63.8172 24.8467C64.2135 25.2435 64.6927 25.4413 65.2554 25.4413C65.6375 25.4413 65.9953 25.3388 66.3288 25.1333C66.0978 25.3134 65.8294 25.5124 65.5232 25.7303C65.2163 25.9471 64.8716 26.1508 64.4877 26.3415C64.1051 26.5328 63.6833 26.6922 63.2225 26.8201C62.7628 26.948 62.2652 27.012 61.7298 27.012C61.1421 27.012 60.5859 26.8971 60.0617 26.6685C59.5387 26.4381 59.0855 26.1248 58.7017 25.728C58.319 25.3317 58.0128 24.8721 57.7823 24.3492C57.5513 23.825 57.4364 23.2689 57.4364 22.6813V10.0755C57.4364 9.61594 57.2895 9.17648 56.9957 8.75597C56.7019 8.33427 56.3251 8.07249 55.8655 7.96944C57.3215 7.86698 58.6756 7.51576 59.9266 6.9152C61.1789 6.31524 62.2783 5.5293 63.2249 4.55798V7.96944H64.7555C64.3225 8.07249 63.9594 8.33427 63.6656 8.75597C63.3718 9.17648 63.2249 9.61594 63.2249 10.0755V10.1916Z" fill="#6356E0"/>
<path d="M46.2861 25.4794C46.3364 25.8366 46.5597 26.1617 46.9566 26.4555C47.3529 26.7492 47.9091 26.9222 48.6247 26.9743C47.7302 26.9222 46.8932 26.7564 46.1131 26.4768C45.3342 26.1961 44.6512 25.8383 44.0636 25.4036C43.476 24.9695 43.0092 24.4649 42.6633 23.8898C42.3185 23.3153 42.1467 22.6952 42.1467 22.0301C42.1467 21.2139 42.434 20.518 43.0092 19.9429C43.5838 19.3684 44.2804 19.0806 45.099 19.0806C45.5065 19.0806 45.8951 19.1576 46.2648 19.3104C46.6356 19.4638 46.9554 19.6746 47.2244 19.9429C47.4927 20.2118 47.7036 20.5251 47.857 20.8834C48.0098 21.2406 48.0868 21.6226 48.0868 22.0301C48.0868 22.4897 47.9909 22.9179 47.8001 23.3141C47.6088 23.7109 47.3464 24.0497 47.0135 24.3304C46.8097 24.5093 46.6308 24.6947 46.478 24.8872C46.3246 25.0785 46.2606 25.2757 46.2861 25.4794ZM56.5954 21.6486C56.6457 22.415 56.4852 23.124 56.1144 23.7761C55.7448 24.427 55.2211 24.9884 54.5435 25.4605C53.867 25.9331 53.0821 26.3098 52.1883 26.5905C51.2938 26.8713 50.3484 27.0122 49.3521 27.0122C50.0422 27.0122 50.6298 26.7315 51.1149 26.1688C51.5995 25.6068 51.8423 24.9813 51.8423 24.2925C51.8423 23.6529 51.606 23.0334 51.1339 22.4328C50.6612 21.8328 50.0611 21.2329 49.3331 20.6323C48.6045 20.0324 47.825 19.4134 46.9945 18.775C46.1652 18.1353 45.3863 17.4714 44.6583 16.7826C43.9297 16.0926 43.3291 15.3647 42.8552 14.5983C42.3825 13.8325 42.1467 13.0027 42.1467 12.1084C42.1467 11.3408 42.3511 10.6769 42.7604 10.116C43.1691 9.55398 43.6868 9.08786 44.3124 8.71829C44.9379 8.34753 45.6333 8.07272 46.3998 7.89385C47.1675 7.7138 47.9091 7.62378 48.6247 7.62378C48.8533 7.62378 49.0636 7.62378 49.2549 7.62378C49.4475 7.62378 49.6459 7.64984 49.8497 7.70196C49.159 7.5995 48.5655 7.75882 48.0679 8.18051C47.5703 8.6022 47.3215 9.23415 47.3215 10.0758C47.3215 10.7663 47.5383 11.4048 47.9731 11.9923C48.4073 12.5799 48.9564 13.155 49.6198 13.717C50.2845 14.2797 51.0065 14.8482 51.7855 15.4227C52.5638 15.9961 53.2977 16.5966 53.9867 17.2232C54.6767 17.8487 55.2644 18.5256 55.7495 19.2535C56.2358 19.982 56.5178 20.7804 56.5954 21.6486ZM55.3301 14.3685C55.227 13.8064 55.0671 13.1739 54.8491 12.4709C54.6323 11.7685 54.3261 11.098 53.9298 10.4596C53.5347 9.82168 53.0371 9.2537 52.4371 8.75619C51.8364 8.2575 51.1019 7.91873 50.2335 7.73986C50.6422 7.81567 51.019 7.90511 51.3637 8.00757C51.7079 8.11062 52.0331 8.21308 52.3399 8.31555C52.6462 8.41682 52.9465 8.49323 53.2403 8.54535C53.5341 8.59628 53.8475 8.60872 54.1809 8.58325C54.3847 8.5566 54.6074 8.50507 54.8491 8.42926C55.092 8.35227 55.2525 8.26283 55.3301 8.16156V14.3685Z" fill="#6356E0"/>
<path d="M82.4994 7.62378C82.2435 7.6759 81.9425 7.91281 81.5966 8.3345C81.2519 8.75501 80.9267 9.30996 80.6204 9.99995C80.3136 10.6905 80.0518 11.4889 79.8338 12.3951C79.617 13.3018 79.5092 14.266 79.5092 15.2877C79.5092 16.5658 79.675 17.7669 80.0067 18.8911C80.3396 20.014 80.794 20.9972 81.3692 21.8405C81.9437 22.6827 82.6143 23.3467 83.3808 23.8329C84.1467 24.318 84.9641 24.5602 85.8331 24.5602C86.5736 24.5602 87.3021 24.3754 88.0177 24.0059C88.7333 23.6351 89.3588 23.1169 89.8943 22.4518C89.1278 23.8323 88.0935 24.9381 86.7904 25.7684C85.4872 26.5976 84.0567 27.0122 82.4994 27.0122C81.2987 27.0122 80.1679 26.7575 79.1064 26.247C78.0461 25.7353 77.1208 25.0453 76.3294 24.1764C75.538 23.3082 74.9113 22.2859 74.4505 21.1109C73.9908 19.9358 73.761 18.6719 73.761 17.318C73.761 15.9901 73.9908 14.7322 74.4505 13.5441C74.9113 12.3566 75.538 11.3284 76.3294 10.4596C77.1208 9.59129 78.0461 8.90189 79.1064 8.39136C80.1679 7.87964 81.2987 7.62378 82.4994 7.62378ZM83.1509 7.62378C84.0703 7.70137 84.9381 7.91932 85.7549 8.27764C86.573 8.63478 87.2885 9.06891 87.9016 9.58063C88.5141 10.0912 88.9992 10.6526 89.3564 11.265C89.7148 11.878 89.8943 12.4656 89.8943 13.0276C89.8943 13.8444 89.6005 14.5403 89.0129 15.1148C88.4252 15.6899 87.7227 15.9771 86.9065 15.9771C86.0878 15.9771 85.3912 15.6899 84.8166 15.1148C84.2415 14.5403 83.9542 13.8444 83.9542 13.0276C83.9542 12.2352 84.2225 11.5446 84.7598 10.9571C85.0157 10.703 85.22 10.4418 85.3734 10.1729C85.5263 9.9046 85.6033 9.62979 85.6033 9.34846C85.6033 9.0926 85.5263 8.85688 85.3734 8.64011C85.22 8.42215 85.0216 8.24388 84.7787 8.1047C84.5353 7.96433 84.2669 7.85536 83.9731 7.77777C83.6793 7.70077 83.4051 7.64925 83.1509 7.62378Z" fill="#6356E0"/>
<path d="M29.2708 25.0954C29.2708 25.5047 29.5195 25.8748 30.0171 26.2065C30.5159 26.5382 31.1361 26.704 31.8771 26.704C32.7206 26.704 33.4871 26.6021 34.1778 26.3984C33.2822 26.7052 32.3231 26.9018 31.3013 26.9906C30.2807 27.0807 29.3424 26.9723 28.4865 26.6661C27.6299 26.3599 26.9209 25.8239 26.3588 25.0575C25.796 24.2917 25.5153 23.193 25.5153 21.7621V11.0729C25.5153 10.5884 25.3618 10.1347 25.0556 9.71305C24.7487 9.29136 24.3785 9.04201 23.9443 8.96443L30.4981 8.00732H30.6118C31.046 8.00732 31.2634 8.22469 31.2634 8.65882V21.2267C31.2634 21.7118 31.1615 22.121 30.9578 22.4539C30.754 22.7856 30.5242 23.0858 30.2683 23.3541C30.0124 23.6212 29.7814 23.8889 29.5764 24.1572C29.3726 24.4261 29.2708 24.7388 29.2708 25.0954ZM41.3429 23.9464C41.3429 24.406 41.4957 24.8532 41.8026 25.2873C42.1088 25.722 42.479 25.9779 42.9138 26.0549L36.36 27.012H36.2463C36.0674 27.012 35.9146 26.948 35.7866 26.8201C35.6587 26.6921 35.5947 26.5393 35.5947 26.3605V11.0729C35.5947 10.5884 35.4413 10.1347 35.135 9.71305C34.8282 9.29136 34.458 9.04201 34.0238 8.96443L40.5752 8.00732H40.6913C41.1255 8.00732 41.3429 8.22469 41.3429 8.65882V23.9464Z" fill="#6356E0"/>
</svg>

<svg xmlns="http://www.w3.org/2000/svg" width="90" height="29" fill="none" viewBox="0 0 90 29"><path fill="#6356e0" d="M16.933 14.444q.804.806 1.378 2.09a29 29 0 0 1 1.055 2.72q.478 1.435.976 2.892.5 1.455 1.092 2.547.595 1.092 1.38 1.725.786.631 1.897.402-.728.766-2.03 1.168-1.305.403-2.837.44-2.184 0-3.622-1.11a8.8 8.8 0 0 1-2.356-2.796 17.7 17.7 0 0 1-1.476-3.64 120 120 0 0 1-.976-3.64q-.422-1.686-.862-2.817-.44-1.13-1.13-1.13h2.338q.84 0 1.588-.516.747-.52 1.303-1.4.555-.882.881-2.068a9.6 9.6 0 0 0 .327-2.569q0-1.34-.327-2.565-.325-1.227-.881-2.147-.555-.919-1.303-1.473Q12.6 0 11.76 0h3.677q1.495 0 2.799.519a7.1 7.1 0 0 1 2.28 1.436A7 7 0 0 1 22.066 4.1q.576 1.225.576 2.604t-.576 2.606a7 7 0 0 1-1.552 2.146 7.1 7.1 0 0 1-2.28 1.436 7.5 7.5 0 0 1-2.798.516h-.573q.306 0 .69.154.305.117.668.327.365.211.71.554M9.23 24.293q0 .957.67 1.743.67.784 1.668.784H.186q.959.001 1.63-.784.67-.786.67-1.744V2.529q0-.957-.67-1.741Q1.145 0 .186 0H9.23zM72.956 24.712q0 .692.46 1.343.462.65 1.11.765h-8.89q.652-.116 1.112-.765.46-.651.46-1.343V11.073q0-.727-.46-1.36-.46-.632-1.111-.748l6.554-.958h.113q.651 0 .652.652zM70.082 5.939a2.84 2.84 0 0 1-2.088-.862 2.84 2.84 0 0 1-.862-2.09q0-1.224.862-2.106A2.81 2.81 0 0 1 70.082 0q1.226 0 2.109.881.88.882.88 2.106 0 .614-.229 1.152-.23.536-.632.938-.405.404-.96.632-.556.23-1.168.23"/><path fill="#6356e0" d="M63.225 10.192V23.37q0 .881.592 1.476.595.594 1.438.594.574 0 1.074-.308-.347.27-.806.597-.46.325-1.035.611-.575.287-1.266.48-.69.19-1.492.191a4.1 4.1 0 0 1-1.668-.343 4.3 4.3 0 0 1-1.36-.941 4.7 4.7 0 0 1-.92-1.379 4.1 4.1 0 0 1-.346-1.668V10.075q0-.69-.44-1.319-.44-.633-1.13-.787a11.1 11.1 0 0 0 4.06-1.054 11.5 11.5 0 0 0 3.299-2.357v3.411h1.53q-.648.154-1.09.787-.44.63-.44 1.32zM46.286 25.48q.075.535.67.976t1.669.518a9 9 0 0 1-2.512-.497 8 8 0 0 1-2.05-1.073 5.2 5.2 0 0 1-1.4-1.514 3.55 3.55 0 0 1-.516-1.86q0-1.224.862-2.087a2.85 2.85 0 0 1 2.09-.862q.612 0 1.166.23.555.23.96.632.402.403.632.94t.23 1.147q0 .69-.287 1.284a3 3 0 0 1-.786 1.016 4.3 4.3 0 0 0-.536.557q-.23.287-.192.592m10.31-3.831a3.7 3.7 0 0 1-.482 2.127q-.555.976-1.57 1.685-1.015.708-2.356 1.13-1.341.42-2.836.421 1.035 0 1.763-.843.726-.843.727-1.876 0-.96-.708-1.86-.71-.9-1.8-1.8a89 89 0 0 0-2.34-1.858 31 31 0 0 1-2.336-1.992 11 11 0 0 1-1.803-2.185 4.65 4.65 0 0 1-.708-2.49q0-1.15.613-1.992a5.1 5.1 0 0 1 1.552-1.398 7.3 7.3 0 0 1 2.088-.824q1.152-.27 2.225-.27h.63q.288 0 .595.078-1.037-.154-1.782.479-.747.632-.746 1.895 0 1.035.651 1.916.651.882 1.647 1.725a41 41 0 0 0 2.166 1.706 28 28 0 0 1 2.2 1.8q1.035.94 1.764 2.03a5.06 5.06 0 0 1 .845 2.396m-1.266-7.28a17 17 0 0 0-.48-1.898 8.6 8.6 0 0 0-.92-2.011 7 7 0 0 0-1.493-1.704q-.9-.747-2.203-1.016.612.114 1.13.268t.976.308q.459.15.9.23.44.076.94.037.306-.04.67-.154.363-.116.48-.267zM82.5 7.624q-.385.078-.903.71-.517.631-.977 1.666a14 14 0 0 0-.786 2.395q-.325 1.36-.325 2.893 0 1.917.498 3.603.5 1.684 1.362 2.95.862 1.263 2.012 1.992a4.5 4.5 0 0 0 2.452.727q1.111 0 2.185-.554a5.9 5.9 0 0 0 1.876-1.554 9.1 9.1 0 0 1-3.104 3.316 7.84 7.84 0 0 1-4.29 1.244q-1.801 0-3.394-.765a9 9 0 0 1-2.777-2.07q-1.187-1.303-1.878-3.066t-.69-3.793q0-1.992.69-3.774.69-1.781 1.878-3.084a9 9 0 0 1 2.777-2.069 7.7 7.7 0 0 1 3.393-.767m.65 0q1.38.115 2.605.654a8.9 8.9 0 0 1 2.147 1.303 6.4 6.4 0 0 1 1.454 1.684q.538.919.538 1.763 0 1.224-.881 2.087a2.9 2.9 0 0 1-2.107.862 2.84 2.84 0 0 1-2.09-.862 2.84 2.84 0 0 1-.862-2.087q0-1.19.806-2.07a3.7 3.7 0 0 0 .613-.785q.23-.402.23-.825 0-.383-.23-.708a1.8 1.8 0 0 0-.594-.535 3.3 3.3 0 0 0-.806-.327 5.4 5.4 0 0 0-.822-.154"/><path fill="#6356e0" d="M29.27 25.095q0 .615.747 1.111.75.498 1.86.498 1.266 0 2.3-.306a12 12 0 0 1-2.876.593q-1.53.135-2.814-.325-1.285-.459-2.128-1.608t-.844-3.296v-10.69q0-.726-.46-1.359t-1.11-.749l6.553-.957h.114q.651 0 .651.652v12.568q0 .727-.305 1.227a5.4 5.4 0 0 1-.69.9 10 10 0 0 0-.692.803 1.5 1.5 0 0 0-.305.938m12.073-1.149q0 .69.46 1.341.459.652 1.11.768l-6.553.957h-.114a.63.63 0 0 1-.46-.192.63.63 0 0 1-.191-.46V11.073a2.27 2.27 0 0 0-.46-1.36q-.46-.633-1.111-.749l6.551-.957h.116q.651 0 .652.652z"/></svg>
